;FLAVOR:Marlin
;TIME:6635.7
;Filament used:7.86497m
;Material Diameter:1.75
;Material Density:1.24
;Filament Cost:0.469153
;Filament Weight:23.457649
;Filament Length:7.864965
;Layer height:0.12
;MINX:0.694
;MINY:0.719
;MINZ:0.12
;MAXX:162.079
;MAXY:157.915
;MAXZ:20.401
;OuterWall Time:537.945
;InnerWall Time:423.476
;Skin Time:3404.21
;Support Time:79.0098
;SkirtBrim Time:46.0841
;Infill Time:962.258
;Support Infills Time:0
;Combing Time:445.512
;Retraction Time:615.269
;PrimeTower Time:121.936
;;;;;;;;;;;;;;;;;;;;;;;;;;;;;;;;;;;;;;;;;;;;;;;;;;;;;;;;;;
;Creality Print GCode Generated by CXEngine
;CRSLICE_GIT_HASH:58ee74d
;Creality Print Version : V4.3.8.6984
;CXEngine Release Time:2023-12-04 18:16:29
;Gcode Generated Time:2024-04-20 00:45:56
;----------Machine Config--------------
;Machine Name:Ender-3 V3 SE
;Machine Height:250
;Machine Width:220
;Machine Depth:220
;Material Type:PLA
;Material Name:CR-PLA_1.75
;Number of Extruders:1
;ExtruderParams[0] Nozzle Diameter:1000
;----------Profile Config---------------
;Wall Thickness:0.8
;Top/Bottom Thickness:0.8
;Out Wall Line Width:0.42
;Inner Wall Line Width:0.45
;Inital Height:120
;Wall Line Count:2
;Infill Line Distance:1.13
;Infill Pattern:lines
;Infill Sparse Density:40
;Infill Wipe Distance:0
;Print Temperature:215
;Bed Temperature:60
;Support Enable:true
;Support Density:15
;Support Angle:65
;Adhesion Type:autobrim
;machine is belt:false
;machine belt offset:10
;machine belt offset Y:0
;Raft Base Line Spacing:1.6
;Wait Heatup Sync:true
;Enable Ironing:false
;Material Type:PLA
;Max volumetric speed:20
;Preview Img Type:png
;Screen Size:Sermoon D3
;----------Shell Config----------------
;Outer Wall Wipe Distance:2000
;Outer Inset First:false
;Infill Before Walls:false
;Infill Overlap:0.14
;Fill Gaps Between Walls:everywhere
;Minimum Infill Area:30
;Top Surface Skin Layer:0
;Top Layers:8
;Z Seam Alignment:sharpest_corner
;Seam Corner Preference:z_seam_corner_inner
;Z Seam X:110
;Z Seam Y:220
;Horizontal Expansion:0
;Top/Bottom Pattern:zigzag
;Ironing Pattern:zigzag
;Vase Model:false
;----------Support Config----------------
;Support Type:everywhere
;Support Pattern:triangles
;Support Infill Layer Thickness:0.12
;Minimum Support Area:1
;Enable Support Roof:true
;Support Roof Thickness:0.8
;Support Roof Pattern:lines
;Connect Support Lines:0
;Connect Support ZigZags:1
;Minimum Support X/Y Distance:0.2
;Support Line Distance:8.4
; ---------PrintSpeed & Travel----------
;Enable Print Cool:true
;Avoid Printed Parts Traveling:true
;Enable Retraction:true
;Retraction Distance:1.2
;Retraction Speed:30
;Retraction Prime Speed:30
;Maximum Retraction Count:100
;Minimum Extrusion Distance Window:0.8
;Z Hop When Retracted:true
;Z Hop Height:0.4
;Retract Before Outer Wall:true

;Outer Wall Speed:75
;Inner Wall Speed:75
;Infill Speed:150
;Top/Bottom Speed:75
;Travel Speed:150
;Initial Layer Speed:30
;Skirt/Brim Speed:25
;Prime Tower Speed:150
;Outer Wall Acceleration:1000
;Inner Wall Acceleration:2000
;Infill Acceleration:2500
;Top/Bottom Acceleration:2500
;Travel Acceleration:2500
;Initial Layer Print Acceleration:500
;Initial Layer Travel Acceleration:500
;Skirt/Brim Acceleration:500
;Combing Mode:off
; --------SpecialModel&Mesh Fixes--------
;Union Overlapping Volum:true
;Remove All Holes:false
;Maximum Travel Resolution:0.25
;Maximum Deviation:0.05
;Maximum Model Angle:0.872665
;IS Mold Print:false
;Make Overhang Printable:false
;Enable Coasting:false
;Coasting Volumes:0.064
;Coasting Speed:0.9
;Raft AirGap:0.25
;Layer0 ZOverLap:0.13
;Adaptive Layers:0
;---------------------End of Head--------------------------
M140 S60
M105
M190 S60
M104 S215
M82 ;absolute extrusion mode
M220 S100 ;Reset Feedrate
M221 S100 ;Reset Flowrate

G28 ;Home

G92 E0 ;Reset Extruder
G1 Z2.0 F3000 ;Move Z Axis up
G1 X-2.1 Y20 Z0.28 F5000.0 ;Move to start position
M109 S215.000000
G1 X-2.1 Y145.0 Z0.28 F1500.0 E15 ;Draw the first line
G1 X-2.4 Y145.0 Z0.28 F5000.0 ;Move to side a little
G1 X-2.4 Y20 Z0.28 F1500.0 E30 ;Draw the second line
G92 E0  ;Reset Extruder
G1 E-1.0000 F1800 ;Retract a bit
G1 Z2.0 F3000 ;Move Z Axis up
G1 E0.0000 F1800 

G92 E0
G92 E0
G1 F1800 E-1.2
;LAYER_COUNT:42

;LAYER:0
M106 S0
M204 S500
;;retract;;
G1 F1800 E0
G1 F1800 E-1.2
G0 F1500 X0.694 Y0.719 Z20.401
G0 X58.529 Y60.636 Z0.52
;TYPE:SKIRT
G1 F600 Z0.12
G1 F1800 E0
G1 F1500 X58.271 Y60.951 E0.00939
G1 X58.079 Y61.31 E0.01877
G1 X57.961 Y61.7 E0.02816
G1 X57.921 Y62.105 E0.03754
G1 X57.921 Y70.663 E0.2348
G1 X57.961 Y71.07 E0.24422
G1 X58.08 Y71.46 E0.25362
G1 X58.272 Y71.819 E0.263
G1 X58.531 Y72.134 E0.2724
G1 X58.846 Y72.392 E0.28179
G1 X59.205 Y72.584 E0.29117
G1 X59.595 Y72.702 E0.30057
G1 X60 Y72.742 E0.30995
G1 X60 Y72.28 E0.32059
G1 X59.643 Y72.24 E0.32887
G1 X59.304 Y72.122 E0.33715
G1 X58.999 Y71.933 E0.34542
G1 X58.743 Y71.681 E0.3537
G1 X58.55 Y71.378 E0.36198
G1 X58.428 Y71.04 E0.37026
G1 X58.383 Y70.663 E0.37901
G1 X58.383 Y62.105 E0.57627
G1 X58.423 Y61.748 E0.58455
G1 X58.541 Y61.409 E0.59282
G1 X58.73 Y61.104 E0.60109
G1 X58.982 Y60.848 E0.60937
G1 X59.285 Y60.655 E0.61765
G1 X59.623 Y60.533 E0.62593
G1 X60 Y60.488 E0.63469
G1 X160 Y60.488 E2.93961
G1 X160.357 Y60.528 E2.94789
G1 X160.696 Y60.646 E2.95617
G1 X161.001 Y60.835 E2.96444
G1 X161.257 Y61.087 E2.97272
G1 X161.45 Y61.39 E2.981
G1 X161.572 Y61.728 E2.98928
G1 X161.617 Y62.105 E2.99803
G1 X161.617 Y70.663 E3.19529
G1 X161.577 Y71.02 E3.20357
G1 X161.459 Y71.359 E3.21184
G1 X161.27 Y71.664 E3.22011
G1 X161.018 Y71.92 E3.22839
G1 X160.715 Y72.113 E3.23667
G1 X160.377 Y72.235 E3.24495
G1 X160 Y72.28 E3.2537
G1 X160 Y72.742 E3.26435
G1 X160.407 Y72.702 E3.27378
G1 X160.797 Y72.583 E3.28318
G1 X161.156 Y72.391 E3.29256
G1 X161.471 Y72.132 E3.30196
G1 X161.729 Y71.817 E3.31135
G1 X161.921 Y71.458 E3.32073
G1 X162.039 Y71.068 E3.33012
G1 X162.079 Y70.663 E3.3395
G1 X162.079 Y62.105 E3.53676
G1 X162.039 Y61.698 E3.54618
G1 X161.92 Y61.308 E3.55558
G1 X161.728 Y60.949 E3.56497
G1 X161.469 Y60.634 E3.57437
G1 X161.154 Y60.376 E3.58375
G1 X160.795 Y60.184 E3.59314
G1 X160.405 Y60.066 E3.60253
G1 X160 Y60.026 E3.61191
G1 X60 Y60.026 E5.91683
G1 X59.593 Y60.066 E5.92626
G1 X59.203 Y60.185 E5.93566
G1 X58.844 Y60.377 E5.94504
G1 X58.529 Y60.636 E5.95444
G0 X59.187 Y61.284
G1 X59.002 Y61.524 E5.96143
G1 X58.885 Y61.804 E5.96842
G1 X58.845 Y62.105 E5.97542
G1 X58.845 Y70.663 E6.17268
G1 X58.882 Y70.953 E6.17941
G1 X58.996 Y71.234 E6.1864
G1 X59.179 Y71.476 E6.1934
G1 X59.419 Y71.661 E6.20038
G1 X59.699 Y71.778 E6.20738
G1 X60 Y71.818 E6.21438
G1 X60 Y71.463 E6.22256
G1 X160 Y71.463 E8.52749
G1 X160 Y71.818 E8.53567
G1 X160.29 Y71.781 E8.54241
G1 X160.571 Y71.667 E8.5494
G1 X160.813 Y71.484 E8.55639
G1 X160.998 Y71.244 E8.56337
G1 X161.115 Y70.964 E8.57037
G1 X161.155 Y70.663 E8.57737
G1 X161.155 Y62.105 E8.77462
G1 X161.118 Y61.815 E8.78136
G1 X161.004 Y61.534 E8.78835
G1 X160.821 Y61.292 E8.79534
G1 X160.581 Y61.107 E8.80233
G1 X160.301 Y60.99 E8.80932
G1 X160 Y60.95 E8.81632
G1 X60 Y60.95 E11.12125
G1 X59.71 Y60.987 E11.12799
G1 X59.429 Y61.101 E11.13498
G1 X59.187 Y61.284 E11.14197
G0 X59.521 Y61.561
G1 X59.307 Y61.946 E11.15212
G1 X59.307 Y70.771 E11.35553
G1 X59.409 Y71.025 E11.36184
G1 X59.564 Y71.202 E11.36726
G1 X60 Y71.356 E11.37792
G1 X160.108 Y71.356 E13.68534
G1 X160.479 Y71.207 E13.69455
G1 X160.693 Y70.822 E13.70471
G1 X160.693 Y61.997 E13.90812
G1 X160.591 Y61.743 E13.91443
G1 X160.436 Y61.566 E13.91985
G1 X160 Y61.412 E13.93051
G1 X59.892 Y61.412 E16.23792
G1 X59.521 Y61.561 E16.24714
G0 X60 Y62.105
G1 X60 Y70.663 E16.44439
G1 X160 Y70.663 E18.74932
G1 X160 Y62.105 E18.94658
G1 X60 Y62.105 E21.2515
G0 X59.769 Y62.008
G1 X59.769 Y70.73 E21.45254
G1 X59.903 Y70.894 E21.45742
G1 X160.067 Y70.894 E23.76613
G1 X160.231 Y70.76 E23.77101
G1 X160.231 Y62.038 E23.97205
G1 X160.097 Y61.874 E23.97693
G1 X59.933 Y61.874 E26.28564
G1 X59.769 Y62.008 E26.29052
;;retract move;;
G1 F1200 X59.769 Y64.008 E25.15052
G1 F1800 E25.09052
G0 F1500 X60.07 Y62.175 Z0.52
;TYPE:SUPPORT
G1 F600 Z0.12
G1 F1800 E26.29052
G1 F1980 X60.07 Y68.069 E26.48812
G1 X159.93 Y68.069 E29.83605
G1 X159.93 Y62.175 E30.03365
G1 X60.07 Y62.175 E33.38158
G0 F1500 X60.14 Y63.82
;TYPE:SUPPORT
G1 F1800 X67.375 Y67.997 E33.53563
G1 X67.2 Y67.999
G1 X67.2 Y62.245 E33.64173
;;retract move;;
G1 F1200 X67.26 Y64.244 E32.50173
G1 F1800 E32.44173
G0 F1500 X67.197 Y65.242 Z0.52
G0 X67.022 Y67.998
G1 F600 Z0.12
G1 F1800 E33.64173
G1 X76.989 Y62.244 E33.85394
G0 F1500 X75.6 Y62.245
G1 F1800 X75.6 Y67.999 E33.96004
;;retract;;
G1 F1800 E32.76004
G0 F1500 X75.366 Y67.027 Z0.52
G0 X74.211 Y62.244
G1 F600 Z0.12
G1 F1800 E33.96004
G1 X84.176 Y67.998 E34.17222
G1 X84 Y67.999
G1 X84 Y62.245 E34.27832
;;retract move;;
G1 F1200 X84.061 Y64.244 E33.13832
G1 F1800 E33.07832
G0 F1500 X83.998 Y65.242 Z0.52
G0 X83.822 Y67.998
G1 F600 Z0.12
G1 F1800 E34.27832
G1 X93.789 Y62.244 E34.49054
G0 F1500 X92.4 Y62.245
G1 F1800 X92.4 Y67.999 E34.59664
;;retract;;
G1 F1800 E33.39664
G0 F1500 X92.166 Y67.027 Z0.52
G0 X91.01 Y62.244
G1 F600 Z0.12
G1 F1800 E34.59664
G1 X100.976 Y67.998 E34.80883
G1 X100.8 Y67.999
G1 X100.8 Y62.245 E34.91493
;;retract move;;
G1 F1200 X100.861 Y64.244 E33.77493
G1 F1800 E33.71493
G0 F1500 X100.798 Y65.242 Z0.52
G0 X100.623 Y67.998
G1 F600 Z0.12
G1 F1800 E34.91493
G1 X110.589 Y62.244 E35.12713
G0 F1500 X109.2 Y62.245
G1 F1800 X109.2 Y67.999 E35.23323
;;retract;;
G1 F1800 E34.03323
G0 F1500 X108.966 Y67.027 Z0.52
G0 X107.811 Y62.245
G1 F600 Z0.12
G1 F1800 E35.23323
G1 X117.776 Y67.998 E35.4454
G1 X117.6 Y67.999
G1 X117.6 Y62.245 E35.5515
;;retract move;;
G1 F1200 X117.661 Y64.244 E34.4115
G1 F1800 E34.3515
G0 F1500 X117.598 Y65.242 Z0.52
G0 X117.422 Y67.998
G1 F600 Z0.12
G1 F1800 E35.5515
G1 X127.39 Y62.244 E35.76373
G0 F1500 X126 Y62.245
G1 F1800 X126 Y67.999 E35.86983
;;retract;;
G1 F1800 E34.66983
G0 F1500 X125.766 Y67.027 Z0.52
G0 X124.611 Y62.244
G1 F600 Z0.12
G1 F1800 E35.86983
G1 X134.576 Y67.998 E36.08201
G1 X134.4 Y67.999
G1 X134.4 Y62.245 E36.18812
;;retract move;;
G1 F1200 X134.461 Y64.244 E35.04812
G1 F1800 E34.98812
G0 F1500 X134.398 Y65.242 Z0.52
G0 X134.222 Y67.998
G1 F600 Z0.12
G1 F1800 E36.18812
G1 X144.189 Y62.244 E36.40033
G0 F1500 X142.8 Y62.245
G1 F1800 X142.8 Y67.999 E36.50643
;;retract;;
G1 F1800 E35.30643
G0 F1500 X142.566 Y67.027 Z0.52
G0 X141.411 Y62.245
G1 F600 Z0.12
G1 F1800 E36.50643
G1 X151.377 Y67.998 E36.71862
G1 X151.2 Y67.999
G1 X151.2 Y62.245 E36.82472
;;retract move;;
G1 F1200 X151.261 Y64.244 E35.68472
G1 F1800 E35.62472
G0 F1500 X151.198 Y65.242 Z0.52
G0 X151.022 Y67.998
G1 F600 Z0.12
G1 F1800 E36.82472
G1 X159.858 Y62.897 E37.01285
G1 X159.859 Y63.196
G1 X158.211 Y62.245 E37.04793
G0 F1500 X159.6 Y62.245
G1 F1800 X159.6 Y67.999 E37.15403
G0 F1500 X159.79 Y68.349
;TYPE:SUPPORT-INTERFACE
G1 F1800 X159.79 Y70.453 E37.20253
G1 X60.21 Y70.453 E39.49778
G1 X60.21 Y68.349 E39.54627
G1 X159.79 Y68.349 E41.84152
G0 F1500 X159.579 Y69.635
G1 F1800 X158.502 Y68.558 E41.87663
G0 F1500 X158.489 Y70.242
G1 F1800 X156.805 Y68.558 E41.93152
G0 F1500 X156.792 Y70.242
G1 F1800 X155.108 Y68.558 E41.98641
G0 F1500 X155.095 Y70.242
G1 F1800 X153.411 Y68.558 E42.0413
G0 F1500 X153.398 Y70.242
G1 F1800 X151.714 Y68.558 E42.0962
G0 F1500 X151.701 Y70.242
G1 F1800 X150.017 Y68.558 E42.15109
G0 F1500 X150.004 Y70.242
G1 F1800 X148.32 Y68.558 E42.20598
G0 F1500 X148.307 Y70.242
G1 F1800 X146.623 Y68.558 E42.26087
G0 F1500 X146.61 Y70.242
G1 F1800 X144.926 Y68.558 E42.31577
G0 F1500 X144.913 Y70.242
G1 F1800 X143.229 Y68.558 E42.37066
G0 F1500 X143.215 Y70.242
G1 F1800 X141.532 Y68.558 E42.42554
G0 F1500 X141.518 Y70.242
G1 F1800 X139.835 Y68.558 E42.48041
G0 F1500 X139.821 Y70.242
G1 F1800 X138.138 Y68.558 E42.53529
G0 F1500 X138.124 Y70.242
G1 F1800 X136.441 Y68.558 E42.59017
G0 F1500 X136.427 Y70.242
G1 F1800 X134.744 Y68.558 E42.64504
G0 F1500 X134.73 Y70.242
G1 F1800 X133.047 Y68.558 E42.69992
G0 F1500 X133.033 Y70.242
G1 F1800 X131.35 Y68.558 E42.75479
G0 F1500 X131.336 Y70.242
G1 F1800 X129.652 Y68.558 E42.80969
G0 F1500 X129.639 Y70.242
G1 F1800 X127.955 Y68.558 E42.86458
G0 F1500 X127.942 Y70.242
G1 F1800 X126.258 Y68.558 E42.91947
G0 F1500 X126.245 Y70.242
G1 F1800 X124.561 Y68.558 E42.97436
G0 F1500 X124.548 Y70.242
G1 F1800 X122.864 Y68.558 E43.02926
G0 F1500 X122.851 Y70.242
G1 F1800 X121.167 Y68.558 E43.08415
G0 F1500 X121.154 Y70.242
G1 F1800 X119.47 Y68.558 E43.13904
G0 F1500 X119.457 Y70.242
G1 F1800 X117.773 Y68.558 E43.19394
G0 F1500 X117.76 Y70.242
G1 F1800 X116.076 Y68.558 E43.24883
G0 F1500 X116.063 Y70.242
G1 F1800 X114.379 Y68.558 E43.30372
G0 F1500 X114.366 Y70.242
G1 F1800 X112.682 Y68.558 E43.35861
G0 F1500 X112.668 Y70.242
G1 F1800 X110.985 Y68.558 E43.41349
G0 F1500 X110.971 Y70.242
G1 F1800 X109.288 Y68.558 E43.46837
G0 F1500 X109.274 Y70.241
G1 F1800 X107.591 Y68.558 E43.52323
G0 F1500 X107.577 Y70.241
G1 F1800 X105.894 Y68.558 E43.57809
G0 F1500 X105.88 Y70.241
G1 F1800 X104.197 Y68.558 E43.63295
G0 F1500 X104.182 Y70.241
G1 F1800 X102.5 Y68.558 E43.68779
G0 F1500 X102.485 Y70.241
G1 F1800 X100.803 Y68.558 E43.74263
G0 F1500 X100.788 Y70.241
G1 F1800 X99.105 Y68.558 E43.79749
G0 F1500 X99.091 Y70.241
G1 F1800 X97.408 Y68.558 E43.85235
G0 F1500 X97.394 Y70.241
G1 F1800 X95.711 Y68.558 E43.90721
G0 F1500 X95.697 Y70.241
G1 F1800 X94.014 Y68.558 E43.96207
G0 F1500 X94 Y70.241
G1 F1800 X92.317 Y68.558 E44.01693
G0 F1500 X92.303 Y70.241
G1 F1800 X90.62 Y68.558 E44.07179
G0 F1500 X90.606 Y70.241
G1 F1800 X88.923 Y68.558 E44.12665
G0 F1500 X88.909 Y70.241
G1 F1800 X87.226 Y68.558 E44.18151
G0 F1500 X87.212 Y70.241
G1 F1800 X85.529 Y68.558 E44.23637
G0 F1500 X85.515 Y70.241
G1 F1800 X83.832 Y68.558 E44.29123
G0 F1500 X83.818 Y70.241
G1 F1800 X82.135 Y68.558 E44.34609
G0 F1500 X82.121 Y70.241
G1 F1800 X80.438 Y68.558 E44.40095
G0 F1500 X80.424 Y70.241
G1 F1800 X78.741 Y68.558 E44.45582
G0 F1500 X78.727 Y70.241
G1 F1800 X77.044 Y68.558 E44.51068
G0 F1500 X77.03 Y70.241
G1 F1800 X75.347 Y68.558 E44.56554
G0 F1500 X75.333 Y70.241
G1 F1800 X73.65 Y68.558 E44.6204
G0 F1500 X73.635 Y70.241
G1 F1800 X71.953 Y68.558 E44.67524
G0 F1500 X71.938 Y70.241
G1 F1800 X70.256 Y68.558 E44.73008
G0 F1500 X70.241 Y70.241
G1 F1800 X68.558 Y68.558 E44.78494
G0 F1500 X68.544 Y70.241
G1 F1800 X66.861 Y68.558 E44.8398
G0 F1500 X66.847 Y70.241
G1 F1800 X65.164 Y68.558 E44.89466
G0 F1500 X65.15 Y70.241
G1 F1800 X63.467 Y68.558 E44.94952
G0 F1500 X63.453 Y70.241
G1 F1800 X61.77 Y68.558 E45.00438
G0 F1500 X60.419 Y68.904
G1 F1800 X61.756 Y70.241 E45.04796
;;retract;;
G1 F1800 E43.84796
G0 F1500 X62.605 Y70.768 Z0.52
;MESH:0_0
G0 X75.546 Y78.796
;TYPE:WALL-OUTER
G1 F600 Z0.12
G1 F1800 E45.04796
G1 X75.305 Y78.712 E45.05355
G1 X75.045 Y78.569 E45.06005
G1 X74.818 Y78.389 E45.06639
G1 X74.62 Y78.169 E45.07288
G1 X74.454 Y77.907 E45.07967
G1 X74.35 Y77.647 E45.0858
G1 X74.281 Y77.327 E45.09297
G1 X74.271 Y77.037 E45.09932
G1 X74.324 Y76.617 E45.10859
G1 X74.513 Y76.238 E45.11786
G1 X74.691 Y75.993 E45.12449
G1 X74.898 Y75.79 E45.13084
G1 X75.137 Y75.625 E45.1372
G1 X75.552 Y75.432 E45.14722
G1 X75.98 Y75.394 E45.15663
G1 X76.443 Y75.43 E45.1668
G1 X76.863 Y75.625 E45.17694
G1 X77.102 Y75.79 E45.1833
G1 X77.283 Y75.963 E45.18878
G1 X77.466 Y76.204 E45.19541
G1 X77.676 Y76.616 E45.20554
G1 X77.729 Y77.037 E45.21483
G1 X77.719 Y77.327 E45.22118
G1 X77.656 Y77.629 E45.22794
G1 X77.546 Y77.906 E45.23446
G1 X77.38 Y78.169 E45.24127
G1 X77.182 Y78.389 E45.24775
G1 X76.955 Y78.569 E45.2541
G1 X76.695 Y78.712 E45.26059
G1 X76.454 Y78.796 E45.26618
G1 X76.169 Y78.848 E45.27253
G1 X75.831 Y78.848 E45.27993
G1 X75.546 Y78.796 E45.28627
G0 F1500 X75.444 Y79.266
;TYPE:WALL-INNER
G1 F1800 X75.088 Y79.142 E45.29512
G1 X74.759 Y78.956 E45.30398
G1 X74.469 Y78.721 E45.31274
G1 X74.221 Y78.44 E45.32153
G1 X74.027 Y78.122 E45.33027
G1 X73.886 Y77.768 E45.33921
G1 X73.806 Y77.412 E45.34777
G1 X73.789 Y77.038 E45.35655
G1 X73.859 Y76.477 E45.36982
G1 X74.112 Y75.971 E45.38309
G1 X74.341 Y75.66 E45.39215
G1 X74.612 Y75.403 E45.40091
G1 X74.923 Y75.193 E45.40972
G1 X75.424 Y74.965 E45.42263
